X:225
T:Pantalon Waltz,La. CJF.225
T:La Pantalon Waltz. CJF.225
R:Waltz
S:C.J.Fox MS, 1829/33, Beverley,E.Yorks.
B:Kidson Coll.Mitchell Lib.M1805
O:England
A:East Yorkshire
Z:vmp.P J Headford 2000 & 2008
M:3/4
L:1/8
Q:1/4=120
K:D
“$”(ac)|(dcdc).b.d|e2e2(ge)|(dc)BABc|d2d2(ac)|\
(dcdc).b.d|e2e2(ge)|(dc)(BABc)|d4:|!
|:ef|(gA)(eA).g.A|fAdfaf|(gA)(eA).g.A|fAdfaf|\
d2d2(bd)|e4(ge)|(dc)BABc|d4:|!
|:de|f2f2e2|d2d2c2|B2{c}(BABc)|defgag|f2f2e2|\
d2d2c2|B2{c}BA” D.C.”Bc|” $”d4:|

